src/assets/1983.svg

<svg width="3304" height="3253" fill="none" xmlns="http://www.w3.org/2000/svg">
  <g filter="url(#filter0_d)">
    <path d="M1923.93 622.083c-61.79-61.507 117.33-193.658-93.22-253.363C1549.8 289.059 747.321 0 747.321 0L25 1358.59s199.757 226.57 267.916 301.21c68.159 74.65 646.41 339.69 756.634 382.23 110.22 42.55 97.27-5 108.55 10.01 11.27 15.02-27.56 63.82-11.28 102.61 16.29 38.78 244.78 212.47 396.36 281.32s-173.88 633.89 435.04 730.93c608.92 97.04 533.17-419.33 576.65-495.35 43.48-76.02 175.2 40.17 243.35 0 68.15-40.16 59.02-194.08 138.06-250.57 79.03-56.48 103.78-29.69 209.76-65.18 105.99-35.48 154.07-264.54 124.26-318.01-29.82-53.46-113.55-144.02-129.22-174.44-15.38-29.87-22.42-48.57-40.25-95.89l-.98-2.6c-18.56-49.24 22.99-97.9 65.29-185.39 42.3-87.5 119.88-189.09 8.25-287.51-111.64-98.41-266.61 31.82-333.33-65.9-66.72-97.71 10.13-166.56-138.14-228.844-148.27-62.281-432.1 134.144-492.6 88.054s28.83-157.55-13.1-216.934c-41.92-59.384-210.5-184.746-272.29-246.253z" fill="#fff"/>
  </g>
  <defs>
    <filter id="filter0_d" x="0" y="0" width="3304" height="3253" filterUnits="userSpaceOnUse" color-interpolation-filters="sRGB">
      <feFlood flood-opacity="0" result="BackgroundImageFix"/>
      <feColorMatrix in="SourceAlpha" values="0 0 0 0 0 0 0 0 0 0 0 0 0 0 0 0 0 0 127 0"/>
      <feOffset dy="49"/>
      <feGaussianBlur stdDeviation="12.5"/>
      <feColorMatrix values="0 0 0 0 0 0 0 0 0 0 0 0 0 0 0 0 0 0 0.25 0"/>
      <feBlend in2="BackgroundImageFix" result="effect1_dropShadow"/>
      <feBlend in="SourceGraphic" in2="effect1_dropShadow" result="shape"/>
    </filter>
  </defs>
</svg>

<svg width="3304" height="3253" viewBox="0 0 3304 3253" fill="none" xmlns="http://www.w3.org/2000/svg">
<g filter="url(#filter0_d)">
<path d="M1923.93 622.083C1862.14 560.576 2041.26 428.425 1830.71 368.72C1549.8 289.059 747.321 0 747.321 0L25 1358.59C25 1358.59 224.757 1585.16 292.916 1659.8C361.075 1734.45 939.326 1999.49 1049.55 2042.03C1159.77 2084.58 1146.82 2037.03 1158.1 2052.04C1169.37 2067.06 1130.54 2115.86 1146.82 2154.65C1163.11 2193.43 1391.6 2367.12 1543.18 2435.97C1694.76 2504.82 1369.3 3069.86 1978.22 3166.9C2587.14 3263.94 2511.39 2747.57 2554.87 2671.55C2598.35 2595.53 2730.07 2711.72 2798.22 2671.55C2866.37 2631.39 2857.24 2477.47 2936.28 2420.98C3015.31 2364.5 3040.06 2391.29 3146.04 2355.8C3252.03 2320.32 3300.11 2091.26 3270.3 2037.79C3240.48 1984.33 3156.75 1893.77 3141.08 1863.35C3125.7 1833.48 3118.66 1814.78 3100.83 1767.46L3099.85 1764.86C3081.29 1715.62 3122.84 1666.96 3165.14 1579.47C3207.44 1491.97 3285.02 1390.38 3173.39 1291.96C3061.75 1193.55 2906.78 1323.78 2840.06 1226.06C2773.34 1128.35 2850.19 1059.5 2701.92 997.216C2553.65 934.935 2269.82 1131.36 2209.32 1085.27C2148.82 1039.18 2238.15 927.72 2196.22 868.336C2154.3 808.952 1985.72 683.59 1923.93 622.083Z" fill="white"/>
</g>
<defs>
<filter id="filter0_d" x="0" y="0" width="3304" height="3253" filterUnits="userSpaceOnUse" color-interpolation-filters="sRGB">
<feFlood flood-opacity="0" result="BackgroundImageFix"/>
<feColorMatrix in="SourceAlpha" type="matrix" values="0 0 0 0 0 0 0 0 0 0 0 0 0 0 0 0 0 0 127 0"/>
<feOffset dy="49"/>
<feGaussianBlur stdDeviation="12.5"/>
<feColorMatrix type="matrix" values="0 0 0 0 0 0 0 0 0 0 0 0 0 0 0 0 0 0 0.25 0"/>
<feBlend mode="normal" in2="BackgroundImageFix" result="effect1_dropShadow"/>
<feBlend mode="normal" in="SourceGraphic" in2="effect1_dropShadow" result="shape"/>
</filter>
</defs>
</svg>
